X:1
T:Rondo Espressivo
T:Rondo Espressivo
T:C. P. E. Bach
C:C. P. E. Bach
%%score { ( 1 3 ) | ( 2 4 ) }
L:1/8
Q:1/4=92
M:4/4
K:D
V:1 treble nm="Piano" snm="Pno."
V:3 treble 
V:2 treble 
V:4 treble 
V:1
"^Andante sostenuto."!p!"_cantabile" (degf | fc c2-) c(^dfe | eB B2-) B(ce=d | %3
 db)(Bc cd/c/ =e/d/c/B/ | B^A{^G^A}^GF) (degf | fc c2-) c(^dfe |!<(! ee'-) e'2-!<)! e'(c'b^a | %7
 c'>b!>(! =a/g/f/e/ d2 Tc2{Bc}!>)! | B2) z2!pp! (d'b{=ab}ag | f^ed'c') z (=egf | %10
 eced)"_cresc." (cBf=A | AFG) (g fedc | B^A{^G^A}GF)!mf! (dd'c'b | ^bc'^ef) z (fa=c' | %14
 ^ab^de) z (Ee^A | cBg) [Gce] [FBd]2 (T[^Ac]2{Bc} | B4)!f! (B,=CED | DB B2-) B(GDB,) | %18
{/D} ([A,=C]2 [G,B,]2)[K:bass] (G,=A,CB, | B,G) G2- G(EB,G,) | %20
{/B,} ([F,A,]2 [E,G,]2)[K:treble]!p! (=c=c'ba | gfa=c) (Bbag | fegB) (Aagf | %23
 e^df) A [^F=A]2 (T[EG]2{F)G} | ([EG]2 [^DF]2)!pp! (ga=c'b | bf f2-) (f^gba | ae e2-) e(e'^ga | %27
 b{/d'}=c' b/a/g/f/ e2 T^d2{^c^d} | e2) z2!p! (ge{=de}d=c | =c2 B2) (=fd{cd}cB | %30
 B2 A2) (e=c{Bc}BA | GFAd =cBdg |!<(! =feBe dcea | gfd'c' ^bc'd'^d'!<)! | e'!>(!c'b^a c'efg!>)! | %35
!p! (3fga !fermata!g6) |"^rit."{fg} (f2 ge)!p!"_cantabile""^a tempo" (degf | fc c2-) c(^dfe | %38
 eB B2-) B(ce=d | db)(Bc cd/c/ =e/d/c/B/ | B^A{^G^A}^GF) (degf | fc c2-) c!<(!(^dfe | %42
 ee'-) e'2-!<)! e'(c'!>(!{bc'}b^a | c'>b =a/g/f/e/ d2 Tc2{Bc}!>)! | B2) z2!pp! (d'b{=ab}ag | %45
 f^ed'c') z (=egf | eced)"_cresc." (cBf=A | AFG) g (fe) ([^GB=d]c) | ([CFB]^A{^G^A}GF)!f! (dd'c'b | %49
 ^bc'^ef) z (fa=c' | ^ab^de)!mf! z (Ee^A | cBg[Gce]) !^![FBd]2 !^!T[E^Ac]2{Bc} | !^![DFB]4 |] %53
V:2
 [B,DF]4 | [^A,CF]4 [=A,B,F]4 | [^G,B,E]4[K:bass] [=G,B,E]4 | [F,B,D]4 !arpeggio!^E,4 | %4
 [F,C]4[K:treble] [B,DF]4 | C2 GF F2 B,2 | B,2 C^D E4 | =D3 C B,2 E2 | %8
 [B,D]2 B,,2[K:treble] B,D G2 | C^G B2 ^A,F c2 | B,D F2[K:bass] D,2 B,2- | B,4 z GFE | %12
 DCB,^A, x2 F2- | F2 C2 =C2 ^D2 | E2 B,2 B,2 C2 | [F,D]2 [E,C]2 F,4 | [B,D]2 B,,2 z4 | %17
 z G,3 [G,,B,,D,G,]4 | D,4 z4 | z E,3 [E,,G,,B,,E,]4 | B,,4 A,,4 | D,4 G,,4 | =C,4 F,,4 | %23
 B,,4 ^A,,4 | [B,,B,]4[K:treble] [EG]4 | ^D4 =D4 | C4 =C4 | A,4 B,4 | [EG]2[K:bass] E,2 z4 | %29
 D4 z4 | =C4"^cresc. e string." z2[K:bass] [=C,E,]2 | [D,A,=C]4 z2 [G,D=F]2 | %32
 [^G,B,D]4 z2 [A,EG]2 | [^A,CE]8 | ^A,,8 |"^tranquillo" !arpeggio!!fermata![^A,CEG]8 | z4 [B,DF]4 | %37
 ^A,4 =A,4 | ^G,4[K:bass] =G,4 | F,4 ^E,4 | [F,C]4[K:treble] [B,D]4 | ^A,4 =A,4 | %42
 ^G,4[K:bass] =G,4 | F,2 E,2 F,2 F,2 | [B,D]2 B,,2[K:treble] B,D G2 | C^G B2 ^A,F c2 | %46
 B,D F2[K:bass] D,F,^D,B, | E,B, E2 z2 [^E,,^E,]2 | [F,,F,]4 !>![B,,B,]4 | %49
 !>![^A,,^A,]4 !>![=A,,=A,]4 | !>![^G,,^G,]4 =G,4 | [F,B,D]2 [E,B,C]2 !^![F,B,D]2 !^![F,,F,]2 | %52
 !^![B,,,B,,]4 |] %53
V:3
 x4 | x8 | x8 | x4 !arpeggio!B4 | x8 | x8 | x8 | x8 | x8 | x8 | x8 | x8 | x8 | x8 | x8 | x8 | x8 | %17
 x8 | x4[K:bass] x4 | x8 | x4[K:treble] x4 | x8 | x8 | x8 | x8 | x8 | x8 | x8 | x8 | x8 | x8 | x8 | %32
 x8 | x8 | x8 | x8 | x8 | x8 | x8 | x4 !arpeggio!B4 | x8 | x8 | x8 | x8 | x8 | x8 | x8 | x8 | %48
 x6 [B,DF]2 | x2 [^A,CF]2 x2 [=A,=C^D]2 | x2 [^G,B,E]2 x4 | x8 | x4 |] %53
V:4
 x4 | x8 | x4[K:bass] x4 | x4 ^G,2 C2 | x4[K:treble] x4 | ^A,4 =A,4 | ^G,4 =G,4 | %7
 F,2 E,2 F,2 [F,^A,]2 | x4[K:treble] B,4 | x8 | x4[K:bass] x2 ^D,2 | E,4 x4 | F,4 B,4 | ^A,4 =A,4 | %14
 ^G,4 =G,4 | x6 E2 | x8 | x G,-D,-B,,- x4 | F,,2 G,,2 z4 | z E,-B,,-G,,- x4 | ^D,,2 E,,2 z E, =C2 | %21
 z =C F,2 z D, B,2 | z B, E,2 z =C, A,2 | z A, ^D,2 z E, C2 | x4[K:treble] x4 | ^GA=cB B2 E2 | %26
 E^GBA A2 E2 | E2 F2 G2 A2 | x2[K:bass] x6 | D=F^GF z4 | =C^D=FE z4[K:bass] | x8 | x8 | x8 | %34
 ^A,,2 E,2 G,2 C2 | x8 | x8 | ^DEGF F2 B,2 | B,^DFE[K:bass] E2 B,2 | B,2 D2 ^E,^G,B,D | %40
 x4[K:treble] x4 | ^DEGF F2 B,2 | B,CD^D[K:bass] E2 C2 | D3 C B,2 [^A,E]2 | x4[K:treble] B,4 | %45
 C4 ^A,4 | B,2 x2[K:bass] D,2 ^D,2 | E,4 x4 | x8 | x8 | x6"^ritard." [^A,C]2 | x8 | x4 |] %53

